assets/img/icons/logo_svs.svg

<svg width="30" height="30" viewBox="0 0 30 30" fill="none" xmlns="http://www.w3.org/2000/svg">
<path d="M0 30H30V0H0V30ZM21.127 21.5822H25.9375C26.3481 21.6045 26.7353 21.7801 27.0226 22.0743C27.1735 22.2234 27.2815 22.4104 27.3351 22.6157C27.3482 22.6993 27.3688 22.7817 27.3967 22.8617H19.6457C19.7712 22.0079 20.2707 21.5896 21.122 21.5896L21.127 21.5822ZM3.89764 21.5896H8.70817C9.11819 21.6113 9.50488 21.7871 9.79085 22.0817C9.94345 22.2295 10.0517 22.417 10.1033 22.623C10.117 22.7069 10.1384 22.7892 10.1673 22.8691H2.41634C2.56152 22.0153 3.04134 21.597 3.89272 21.597L3.89764 21.5896ZM8.72785 27.4729H4.35532C3.52116 27.4729 2.97982 27.3056 2.72884 27.0153C2.51709 26.7978 2.398 26.5067 2.39665 26.2032H7.95768C8.27018 26.2032 8.4375 26.0359 8.4375 25.6816C8.4375 25.3273 8.29232 25.1895 7.97982 25.1895H3.89518C3.02165 25.1895 2.51969 24.7318 2.4188 23.8337H8.75C9.79085 23.8337 10.3346 24.4193 10.3125 25.6053C10.3125 26.8553 9.79085 27.4803 8.73032 27.4803L8.72785 27.4729ZM10.3125 21.6683H12.4582L13.1471 22.8568H11.0212L10.3125 21.6683ZM16.1663 27.3967H13.75L11.6043 23.8115H13.7303L14.8967 25.812H15.0221L16.1885 23.8115H18.3145L16.1663 27.3967ZM16.7495 22.842L17.4385 21.6535H19.5842L18.8755 22.842H16.7495ZM25.9596 27.4655H21.5625C20.7308 27.4655 20.1895 27.2982 19.9385 27.0079C19.7263 26.7906 19.6064 26.4996 19.6038 26.1959H25.1895C25.502 26.1959 25.6668 26.0285 25.6668 25.6742C25.6668 25.3199 25.5217 25.1821 25.2092 25.1821H21.1467C20.2707 25.1821 19.7712 24.7244 19.6703 23.8263H26.0039C27.0448 23.8263 27.5664 24.4119 27.5664 25.5979C27.5246 26.8479 27.003 27.4729 25.9621 27.4729" fill="#366BB0"/>
</svg>

<svg width="30" height="30" fill="none" xmlns="http://www.w3.org/2000/svg"><path d="M0 30h30V0H0v30zm21.127-8.418h4.81c.411.023.798.198 1.086.492.15.15.259.336.312.542.013.083.034.166.062.246h-7.751c.125-.854.625-1.272 1.476-1.272l.005-.008zm-17.23.008h4.811c.41.021.797.197 1.083.492.152.148.26.335.312.541.014.084.035.166.064.246h-7.75c.145-.854.624-1.272 1.476-1.272l.005-.007zm4.83 5.883H4.356c-.834 0-1.375-.167-1.626-.458a1.172 1.172 0 01-.332-.812h5.56c.313 0 .48-.167.48-.521 0-.355-.145-.492-.457-.492H3.895c-.873 0-1.375-.458-1.476-1.356H8.75c1.04 0 1.585.585 1.563 1.771 0 1.25-.522 1.875-1.583 1.875l-.002-.007zm1.585-5.805h2.146l.69 1.189H11.02l-.709-1.189zm5.854 5.729H13.75l-2.146-3.585h2.126l1.167 2h.125l1.167-2h2.125l-2.148 3.585zm.584-4.555l.689-1.188h2.145l-.709 1.188H16.75zm9.21 4.623h-4.398c-.831 0-1.373-.167-1.623-.457a1.177 1.177 0 01-.335-.812h5.585c.313 0 .478-.168.478-.522s-.145-.492-.458-.492h-4.062c-.876 0-1.376-.458-1.477-1.356h6.334c1.04 0 1.562.586 1.562 1.772-.041 1.25-.563 1.875-1.604 1.875" fill="#366BB0"/></svg>
